symbols-de/shields/motorway_8x1_z16.svg

<?xml version="1.0" encoding="UTF-8" standalone="no"?>
<svg
   xmlns:dc="http://purl.org/dc/elements/1.1/"
   xmlns:cc="http://creativecommons.org/ns#"
   xmlns:rdf="http://www.w3.org/1999/02/22-rdf-syntax-ns#"
   xmlns:svg="http://www.w3.org/2000/svg"
   xmlns="http://www.w3.org/2000/svg"
   xmlns:sodipodi="http://sodipodi.sourceforge.net/DTD/sodipodi-0.dtd"
   xmlns:inkscape="http://www.inkscape.org/namespaces/inkscape"
   width="100%"
   height="100%"
   viewBox="0 0 61.0 16.0"
   id="svg2"
   version="1.1"
   inkscape:version="0.91 r13725"
   sodipodi:docname="autobahn_8x1_z16.svg">
  <metadata
     id="metadata9">
    <rdf:RDF>
      <cc:Work
         rdf:about="">
        <dc:format>image/svg+xml</dc:format>
        <dc:type
           rdf:resource="http://purl.org/dc/dcmitype/StillImage" />
        <dc:title></dc:title>
      </cc:Work>
    </rdf:RDF>
  </metadata>
  <defs
     id="defs7" />
  <sodipodi:namedview
     pagecolor="#ffffff"
     bordercolor="#666666"
     borderopacity="1"
     objecttolerance="10"
     gridtolerance="10"
     guidetolerance="10"
     inkscape:pageopacity="0"
     inkscape:pageshadow="2"
     inkscape:window-width="983"
     inkscape:window-height="617"
     id="namedview5"
     showgrid="false"
     inkscape:zoom="5.7868852"
     inkscape:cx="30.5"
     inkscape:cy="8"
     inkscape:window-x="0"
     inkscape:window-y="0"
     inkscape:window-maximized="0"
     inkscape:current-layer="svg2" />
  <path
     inkscape:connector-curvature="0"
     style="fill:#365eaf;fill-opacity:1;stroke:#0528a2;stroke-width:1;stroke-miterlimit:4;stroke-dasharray:none;stroke-opacity:1"
     id="path6"
     d="m 0.5,8.0000427 0,-5.181826 q 0,-0.272729 0.9677392,-0.40909 L 29.85483,0.5136717 q 0,-0.01367 0.645166,-0.01367 0.645159,0 0.645159,0.01367 l 28.387097,1.895455 q 0.967747,0.136361 0.967747,0.40909 l 0,10.3636553 q 0,0.272731 -0.967747,0.40909 l -28.387097,1.895452 q 0,0.01359 -0.645159,0.01359 -0.645166,0 -0.645166,-0.01359 L 1.4677392,13.590962 Q 0.5,13.454603 0.5,13.181872 Z" />
</svg>

<?xml version="1.0" encoding="UTF-8"?>
<svg xmlns="http://www.w3.org/2000/svg" xmlns:xlink="http://www.w3.org/1999/xlink" width="58pt" height="20pt" viewBox="0 0 58 20" version="1.1">
<g id="surface1">
<path style="fill-rule:nonzero;fill:rgb(21.176471%,36.862745%,68.627451%);fill-opacity:1;stroke-width:1;stroke-linecap:butt;stroke-linejoin:miter;stroke:rgb(1.960784%,15.686275%,63.529412%);stroke-opacity:1;stroke-miterlimit:4;" d="M 0.501212 8 L 0.501212 2.81875 C 0.501212 2.6375 0.821659 2.5 1.466662 2.409375 L 29.854997 0.5125 C 29.854997 0.503125 30.068629 0.5 30.5 0.5 C 30.931371 0.5 31.145003 0.503125 31.145003 0.5125 L 59.533338 2.409375 C 60.178341 2.5 60.498788 2.6375 60.498788 2.81875 L 60.498788 13.18125 C 60.498788 13.3625 60.178341 13.5 59.533338 13.590625 L 31.145003 15.4875 C 31.145003 15.496875 30.931371 15.5 30.5 15.5 C 30.068629 15.5 29.854997 15.496875 29.854997 15.4875 L 1.466662 13.590625 C 0.821659 13.5 0.501212 13.3625 0.501212 13.18125 Z M 0.501212 8 " transform="matrix(0.95082,0,0,1.25,0,0)"/>
</g>
</svg>
